chrome/icons/go.svg

<svg height="16" viewBox="64 64 896 896" width="16" xmlns="http://www.w3.org/2000/svg" xmlns:xlink="http://www.w3.org/1999/xlink">
  <path d="M928,64C936.667,64.0001 944.167,67.1667 950.5,73.5C956.833,79.8334 960,87.3334 960,96L960,672C960,680.667 956.833,688.167 950.5,694.5C944.167,700.833 936.667,704 928,704C919.333,704 911.833,700.833 905.5,694.5C899.167,688.167 896,680.667 896,672L896,173L118.5,950.5C112.167,956.833 104.667,960 96,960C87.3333,960 79.8333,956.833 73.5,950.5C67.1667,944.167 64,936.667 64,928C64,919.333 67.1667,911.833 73.5,905.5L851,128L352,128C343.333,128 335.833,124.833 329.5,118.5C323.167,112.167 320,104.667 320,96C320,87.3334 323.167,79.8334 329.5,73.5C335.833,67.1667 343.333,64.0001 352,64Z" fill="context-fill" fill-opacity="context-fill-opacity">
  </path>
</svg>

<svg xmlns="http://www.w3.org/2000/svg" width="16" height="16" viewBox="64 64 896 896"><path fill="context-fill" fill-opacity="context-fill-opacity" d="M928 64q13 0 22.5 9.5T960 96v576q0 13-9.5 22.5T928 704t-22.5-9.5T896 672V173L118.5 950.5Q109 960 96 960t-22.5-9.5T64 928t9.5-22.5L851 128H352q-13 0-22.5-9.5T320 96t9.5-22.5T352 64Z"/></svg>
